X:1
T:Title
%%score { 1 | 2 }
L:1/8
M:4/4
K:G
V:1 treble nm="Grand Piano"
V:2 treble 
V:1
 z4 z2[Q:1/4=100] DG | B2 BB B2 AG | [EG]2 EG D2 D2 | G2 GG B2 AG | A6 cc | B2 BB B2 AG | %6
 [EG]2 EG D2 d2 | d2 BG [DGB]2 [CFA][CFA] |[M:3/4] [B,G]6 |[M:1/4] [FA][GB] | %10
[M:4/4] [Ac]2 [Ac][Ac] [Ac]2 [GB][FA] | B2 BB B2 D2 | G2 GA B2 AG | %13
[M:9/8] [Fd]2 [G^c]- [Gc] [A=c]2- [Ac]cc |[M:4/4] B2 BB B2 AG | [EG]2 EG D2 d2 | %16
 d2 BG [DGB]2 [CFA][CFA] |[M:7/4] [B,G]6 z2 z2 z4 |] %18
V:2
 z4 z2 [G,B,][G,B,D] | [G,DG]2 [G,DG][G,DG] [G,DG]2[K:bass] [G,CD][G,B,D] | %2
 [C,C]2 [C,G,C][E,G,C] [G,B,]2 [G,B,]2 | [G,B,D]2 [G,B,D][G,B,D] [G,D]2 [F,A,D][E,A,^C] | %4
 [D,F,D]6 [F,A,D][F,A,D] | [G,D]2 [G,D][G,D] [G,D]2 [G,CD][G,B,D] | %6
 [C,C]2 [C,G,C][E,G,C] [G,B,]2[K:treble] [G,B,D]2 | [G,B,G]2 [G,DG][K:bass][G,B,] D,2 D,D, | %8
[M:3/4] G,6 |[M:1/4] [D,D][D,D] |[M:4/4] [D,D]2 [D,D][D,D] [D,D]2 [D,D][D,D] | %11
 [G,DG]2 [G,DG][G,DG] [G,DG]2 [G,B,]2 | [G,B,D]2 [G,B,][G,CG] [G,DG]2 [G,CG][K:bass][G,B,] | %13
[M:9/8] [D,A,]2 [E,A,]- [E,A,] [F,D]2- [F,D][F,A,D][F,A,D] | %14
[M:4/4] [G,D]2 [G,D][G,D] [G,D]2 [G,CD][G,B,D] | [C,C]2 [C,G,C][E,G,C] [G,B,]2[K:treble] [G,B,D]2 | %16
 [G,B,G]2 [G,DG][K:bass][G,B,] D,2 D,D, |[M:7/4] G,6 z2 z2 z4 |] %18

